X: 825
T: Fisher's Hornpipe   #2
R: hornpipe
%S: s:3 b:14(4+5+5)
B: Francis O'Neill: "The Dance Music of Ireland" (1907) #825
Z: Frank Nordberg - http://www.musicaviva.com
F: http://www.musicaviva.com/abc/tunes/ireland/oneill-1001/0825/oneill-1001-0825-1.abc
N: Compacted via repeats and multiple endings [JC]
M: C|
L: 1/8
K: D
(3ABc "^A"|: dAFA GBAG | FADF GBAG |[1,3 FAdf gfed | ceA2 A2 | (Bc) :|
|[2,4 FAdA BGEC | D2DD D2 "^B":: (cd) | edcd efge | fede fgaf | edcB Agfe |
| dcBc A2 || (dc) B>G (3.G.G.G BcdB | A>F (3.F.F.F ABcA | BcdA BGEC | D2DD D2 :|
